app/dist/common/images/biomea-fusion.svg

<svg height="18" viewBox="0 0 18 18" width="18" xmlns="http://www.w3.org/2000/svg"><path d="m0 0h18v18h-18z" fill="#f0f3fa"/><g fill="#55a647"><path d="m8.47 5.5c-.9 0-2.97 1.04-2.97 3.76 0 1.55 1 3.24 2.7 3.24 1.48 0 4.3-1.21 4.3-2.97 0-1.8-2.13-4.03-4.03-4.03zm-3.47 3.76c0-3.08 2.26-4.26 3.47-4.26 2.23 0 4.53 2.4 4.53 4.53 0 2.11-2.97 3.47-4.8 3.47-2.02 0-3.2-1.86-3.2-3.74z"/><path d="m8.33 4.5c-1.18 0-3.83 1.34-3.83 4.83 0 2 1.3 4.17 3.5 4.17 1.9 0 5.5-1.56 5.5-3.83 0-2.32-2.73-5.17-5.17-5.17zm-4.33 4.83c0-3.87 2.83-5.33 4.33-5.33 2.78 0 5.67 3 5.67 5.67 0 2.64-3.73 4.33-6 4.33-2.55 0-4-2.33-4-4.67z"/><circle cx="10" cy="9" r="1"/></g></svg>

<!-- by TradingView --><svg width="18" height="18" viewBox="0 0 18 18" xmlns="http://www.w3.org/2000/svg"><path fill="#F0F3FA" d="M0 0h18v18H0z"/><path d="M8.47 5.5c-.9 0-2.97 1.04-2.97 3.76 0 1.55 1 3.24 2.7 3.24 1.48 0 4.3-1.21 4.3-2.97 0-1.8-2.13-4.03-4.03-4.03ZM5 9.26C5 6.18 7.26 5 8.47 5 10.7 5 13 7.4 13 9.53 13 11.64 10.03 13 8.2 13 6.18 13 5 11.14 5 9.26Z" fill="#55A647"/><path d="M8.33 4.5C7.15 4.5 4.5 5.84 4.5 9.33c0 2 1.3 4.17 3.5 4.17 1.9 0 5.5-1.56 5.5-3.83 0-2.32-2.73-5.17-5.17-5.17ZM4 9.33C4 5.46 6.83 4 8.33 4 11.11 4 14 7 14 9.67 14 12.31 10.27 14 8 14c-2.55 0-4-2.33-4-4.67Z" fill="#55A647"/><circle cx="10" cy="9" r="1" fill="#55A647"/></svg>
